X:1
T:Pleurez mes yeulx
T:Pierre Certon
T:Source : Livre XX de 28 chansons nouvelles à 4 parties---Paris---P.Attaingnant---1546. Editor : André Vierendeels (23/07/18) Notes : Original clefs : C1, C3, C4, F4 Original note values have been halved Editorial accidentals above the staff Square brackets indicate ligatures
T:Pleurez mes yeulx
T:©
T:©
T:©
T:©
T:©
C:Pierre Certon
Z:©
%%score [ 1 [ 2 3 ] 4 ]
L:1/8
Q:1/4=120
M:2/2
K:F
V:1 treble nm="Alto" snm="A"
V:2 treble-8 nm="Tenor 1" snm="T 1"
V:3 treble-8 nm="Tenor 2" snm="T 2"
V:4 bass nm="Bass" snm="B"
V:1
 A8 | AGFE F2 F2 | E8 | z2 A2 c4- | c2 c2 A2 c2 | B4 A2 A2 | B2 G2 A2 A2 | A2 G2 F2 F2 | %8
w: Pleu-|rez _ _ _ _ mes|yeulx|pour la|_ du- re def-|fen- ce, qui|de deux cueurs a|les corps ab- sen-|
w: Plai-|gnez _ _ _ _ mon|cueur|la dou-|* lou- reu- se'ab-|sen- ce, que|pour aul- truy en|vous plus fort sen-|
 E2 CD EFGA | B2 G3 F F2- | F2 E2 F4 :| z2 A2 G2 B2 | A4 z2 A2 | A2 A2 F2 G2 | A2 A2 cBAG | %15
w: ||* * tés,|et vous, fa-|cheux, qui|ne vous con- sen-|tez iou- yr _ _ _|
w: ||* * tez,|||||
 F2 G4 F2 | G2 G2 B2 B2 | A2 A2 BAGF | G4 G4 | z2 A2 G2 A2 | B6 B2 | A3 A G2 E2 | F4 E2 C2 | %23
w: _ de l'heur,|qui no- stre'a- mour|con ten- * * * *|* te,|puis que voy-|ez que|daul- tent plus aug-|men- te, la|
w: ||||||||
 D2 E2 F2 F2 | E2 F2 G2 A2 | B2 A4 G2 | A4 z4 |: A8 | AGFE F2 F2 | E8 | z2 A2 c4- | c2 c2 A2 c2 | %32
w: li- ber- té hereu-|se vous ren- *||drez,|lors|par _ _ _ _ ung|bien,|dont le|_ mal nous tour-|
w: |||||||||
 B4 A2 A2 | B2 G2 A2 A2 | A2 G2 F2 F2 | E2 CD EFGA | B2 G3 F F2- | F2 E2 F4- | F8 |] %39
w: men- te, et|vo- str'en- nuy- e'et|le no- str'as- tain-|||* * drez,|_|
w: |||||||
V:2
 e8 | d4 d4 | c2 A2 c2 c2 | A2 A3 G F2- | F2 E2 F4 | G4 z2 c2 | d2 c2 c3 c | c2 c2 d2 d2 | %8
w: Pleu-|rez mes|yeulx pour la du-|re def- * fen-|* * ce,|_ qui|de deux cueurs a|les corps ab- sen-|
w: Plai-|gnez mon|cueur la dou- lou-|reu- se'ab- * sen-|* * ce,|_ que|pour aul- truy en|vous plus fort sen-|
 c2 c4 G2 |"^-natural" d6 cB | c4 A4 :| z2 c2 c2 d2 | c4 z2 c2 | c2 A2 d2 d2 | c4 e4 | d4 d4 | %16
w: tés, les corps|ab- * *|sen- tés,|et vous, fa-|cheux qui|ne vous con- sen-|tez iou-|yr de|
w: tez, plus fort|sen- * *|* tez,||||||
 B2 d2 d2 d2 | f6 e2 |"^-natural" d4 e4 | z2 f2 e2 e2 | f2 f2 F2 G2 | E2 F2 G2 c2- | %22
w: l'heur qui no- stre'a-|mour con-|ten- te,|puis- que voy-|ez que d'aul- tant|plus aug- men- *|
w: ||||||
"^-natural" c2 B2 c4 | z2 c2 c2 F2 | G2 A2 G2 F2 | f4 d4 | d4 z4 |: e8 | d4 d4 | c2 A2 c2 c2 | %30
w: * * te,|la li- ber-|té hereu- se vous|ren- *|drez,|lors|par ung|bien, dont le mal|
w: ||||||||
 A2 A3 G F2- | F2 E2 F4 | G4 z2 c2 | d2 c2 c3 c | c2 c2 d2 d2 | c2 c4 G2 | d6 cB | c4 A4- | A8 |] %39
w: nous tour- * men-|* * te,|_ et|vo- stre'en- nuy- e'et|le no- str'as- tain-|te, atain- *||* drez,|_|
w: |||||||||
V:3
 c8 | A4 A4 | A4 z2 A2 | c2 c2 A2 A2 | G2 A3 G F2- | F2 E2 F2 F2 | D2 E2 F2 F2 | F2 G2 A2 B2 | %8
w: Pleu-|rez mes|yeulx pour|la du- re def-|fen- * * *|* * ce, qui|de deux cueurs a|les corps ab- sen-|
w: Plai-|gnez mon|cueur la|dou- lou- reu- se'ab-|sen- * * *|* * ce, que|pour aul- truy en|vous plus fort sen-|
 GFED CDEF | GA B4 A2 | G4 F4 :| z2 F2 E2 G2 | E2 E2 C2 C2 | FEDC D2 D2 | E2 E2 A4 | B4 A4 | %16
w: ||* tés,|et vous, fa-|cheux, qui ne vous|con- * * * * sen-|tez iou- yr|de _|
w: ||* tez,||||||
 G2 B2 B2 B2 | c2 d3 c c2- | c2 B2 c4 | z2 c2 c2 c2 | d6 d2 | c3 c c2 c2 | F4 G4 | z2 G2 A2 B2 | %24
w: l'heur qui no- stre'a-|mour con- * ten-|* * te,|puis que voy-|ez que|d'aul- tant plus s'aug-|men- te,|la li- ber-|
w: ||||||||
 c6 c2 | d2 c2 B2 B2 | A4 z4 |: c8 | A4 A4 | A4 z2 A2 | c2 c2 A2 A2 | G2 A3 G F2- | F2 E2 F2 F2 | %33
w: té heu-|reu- se vous ren-|drez,|lors|par ung|bien, dont|le mal nous tour-|men- * * *|* * te, et|
w: |||||||||
 D2 E2 F2 F2 | F2 G2 A2 B2 | GFED CDEF | GA B4 A2 | G4 F4- | F8 |] %39
w: vo- str'en- nuy- e'et|le no- stre'as- tain-|||* drez.|_|
w: ||||||
V:4
 A,,8 | D,4 D,4 | A,,8- | A,,4 z2 A,,2 | C,2 C,2 F,,2 A,,2 | G,,4 F,,2 F,,2 | B,,2 C,2 F,,2 F,,2 | %7
w: Pleu-|rez mes|yeulx|_ pour|la du- re def-|fen- ce, qui|de deux cueurs a|
w: Plai-|gnez mon|cueur|_ la|dou- lou- reu- se'ab-|sen- ce, que|pour aul- truy en|
 F,2 E,2 D,2 B,,2 | C,4 z2 C,2 | G,,2 G,,2 B,,2 F,,2 | C,4 F,,4 :| z2 F,,2 C,2 G,,2 | %12
w: les corps ab- sen-|és, a|les corps ab- sen-|* tés,|et vous, fa-|
w: vous plus fort sen-|tez plus|fort sen- * *|* tez,||
 A,,2 z A,, A,,2 A,,2 | F,,4 B,,4 | A,,4 A,,4 | D,4 D,4 | G,,2 G,2 G,2 G,2 | F,E,D,C, B,,2 C,2 | %18
w: cheux, qui ne vous|con- sen-|tez iou-|yr de|l'heur qui no- stre'a-|mour _ _ _ _ con|
w: ||||||
 G,,4 C,4 | z2 F,,2 C,2 C,2 | B,,6 G,,2 | A,,2 F,,2 C,2 C,2 | D,4 C,4 | z2 C,2 F,2 D,2 | %24
w: ten- te,|puis que voy-|ez que|d'aul- tant plus s'aug-|men- te,|la li- ber-|
w: ||||||
 C,2 F,2 E,2 F,2 | B,,2 F,2 G,4 | D,4 z4 |: A,,8 | D,4 D,4 | A,,8- | A,,4 z2 A,,2 | %31
w: té heu- reu- se|vous ren- *|drez,|lors|par ung|bien,|_ dont|
w: |||||||
 C,2 C,2 F,,2 A,,2 | G,,4 F,,2 F,,2 | B,,2 C,2 F,,2 F,,2 | F,2 E,2 D,2 B,,2 | C,4 z2 C,2 | %36
w: le mal nous tour-|men- te, et|vo- str'en- nuy- e'et|le no- stre'as- tain-|drez, et|
w: |||||
 G,,2 G,,2 B,,2 F,,2 | C,4 F,,4- | F,,8 |] %39
w: la no- str'as- tain-|* drez.|_|
w: |||

